app/images/icons/worker.svg

<svg width="22" height="24" viewBox="0 0 22 24" fill="none" xmlns="http://www.w3.org/2000/svg">
<path d="M10.625 0H11.375C12.0625 0.0625 12.4375 0.4375 12.5 1.125V3.75L13.8125 1.07812C14.7188 1.57812 15.4531 2.25 16.0156 3.09375C16.5781 3.96875 16.9062 4.9375 17 6C17.6875 6.0625 18.0625 6.4375 18.125 7.125C18.0625 7.8125 17.6875 8.1875 17 8.25H5C4.3125 8.1875 3.9375 7.8125 3.875 7.125C3.9375 6.4375 4.3125 6.0625 5 6C5.09375 4.9375 5.42188 3.96875 5.98438 3.09375C6.54688 2.25 7.28125 1.57812 8.1875 1.07812L9.5 3.75V1.125C9.5625 0.4375 9.9375 0.0625 10.625 0ZM11 15C9.4375 14.9688 8.10938 14.4688 7.01562 13.5C5.92188 12.5 5.26562 11.25 5.04688 9.75H16.9531C16.7344 11.25 16.0781 12.5 14.9844 13.5C13.8906 14.4688 12.5625 14.9688 11 15ZM6.78125 16.5H15.2188C17 16.5312 18.4844 17.1406 19.6719 18.3281C20.8594 19.5156 21.4688 21 21.5 22.7812C21.4375 23.5312 21.0312 23.9375 20.2812 24H1.71875C0.96875 23.9375 0.5625 23.5312 0.5 22.7812C0.53125 21 1.14062 19.5156 2.32812 18.3281C3.51562 17.1406 5 16.5312 6.78125 16.5Z" fill="#1D53C0"/>
</svg>

<svg width="22" height="24" fill="none" xmlns="http://www.w3.org/2000/svg"><path d="M10.625 0h.75c.688.063 1.063.438 1.125 1.125V3.75l1.313-2.672a6.21 6.21 0 012.203 2.016A6.32 6.32 0 0117 6c.688.063 1.063.438 1.125 1.125-.063.688-.438 1.063-1.125 1.125H5c-.688-.063-1.063-.438-1.125-1.125C3.938 6.437 4.313 6.062 5 6a6.32 6.32 0 01.984-2.906 6.21 6.21 0 012.204-2.016L9.5 3.75V1.125C9.563.437 9.938.062 10.625 0zM11 15c-1.563-.031-2.89-.531-3.984-1.5-1.094-1-1.75-2.25-1.97-3.75h11.907c-.219 1.5-.875 2.75-1.969 3.75-1.093.969-2.421 1.469-3.984 1.5zm-4.219 1.5h8.438c1.781.031 3.265.64 4.453 1.828 1.187 1.188 1.797 2.672 1.828 4.453-.063.75-.469 1.157-1.219 1.219H1.72C.969 23.937.562 23.531.5 22.781c.031-1.781.64-3.265 1.828-4.453C3.516 17.141 5 16.531 6.781 16.5z" fill="#1D53C0"/></svg>
